source/images/icons/icon-editorial/calendrier.svg

<?xml version="1.0" encoding="UTF-8"?>
<svg width="80px" height="80px" viewBox="0 0 80 80" version="1.1" xmlns="http://www.w3.org/2000/svg" xmlns:xlink="http://www.w3.org/1999/xlink">
    <!-- Generator: Sketch 55.2 (78181) - https://sketchapp.com -->
    <title>Illustrative Icons/Calendrier</title>
    <desc>Created with Sketch.</desc>
    <g id="Illustrative-Icons/Calendrier" stroke="none" stroke-width="1" fill="none" fill-rule="evenodd">
        <path d="M28.3333334,69.6666667 C29.2538079,69.6666667 30,68.9204747 30,68.0000001 C30,67.0795255 29.2538079,66.3333334 28.3333334,66.3333334 C27.4128588,66.3333334 26.6666667,67.0795255 26.6666667,68.0000001 C26.6666667,68.9204747 27.4128588,69.6666667 28.3333334,69.6666667 Z M63.3333334,13 L60,13 L60,9.66666667 C60,8.74619208 59.253808,8 58.3333334,8 C57.4128588,8 56.6666667,8.74619208 56.6666667,9.66666667 L56.6666667,13 L23.3333334,13 L23.3333334,9.66666667 C23.3333334,8.74619208 22.5871413,8 21.6666667,8 C20.7461921,8 20,8.74619208 20,9.66666667 L20,13 L16.6666667,13 C12.9847683,13 10,15.9847683 10,19.6666667 L10,63 C10,66.6818984 12.9847683,69.6666667 16.6666667,69.6666667 L20,69.6666667 C20.9204746,69.6666667 21.6666667,68.9204747 21.6666667,68 C21.6666667,67.0795255 20.9204746,66.3333334 20,66.3333334 L16.6666667,66.3333334 C14.8257175,66.3333334 13.3333333,64.8409492 13.3333333,63 L13.3333333,33 L66.6666667,33 L66.6666667,63 C66.6666667,64.8409492 65.1742826,66.3333334 63.3333334,66.3333334 L36.6666667,66.3333334 C35.7461921,66.3333334 35,67.0795255 35,68 C35,68.9204747 35.7461921,69.6666667 36.6666667,69.6666667 L63.3333334,69.6666667 C67.0152317,69.6666667 70,66.6818984 70,63 L70,19.6666667 C70,15.9847683 67.0152317,13 63.3333334,13 Z M13.3333333,29.6666667 L13.3333333,19.6666667 C13.3333333,17.8257175 14.8257175,16.3333333 16.6666667,16.3333333 L20,16.3333333 L20,19.6666667 C20,20.5871413 20.7461921,21.3333333 21.6666667,21.3333333 C22.5871413,21.3333333 23.3333333,20.5871413 23.3333333,19.6666667 L23.3333333,16.3333333 L56.6666667,16.3333333 L56.6666667,19.6666667 C56.6666667,20.5871413 57.4128588,21.3333333 58.3333333,21.3333333 C59.253808,21.3333333 60.0000001,20.5871413 60.0000001,19.6666667 L60.0000001,16.3333333 L63.3333333,16.3333333 C65.1742826,16.3333333 66.6666667,17.8257175 66.6666667,19.6666667 L66.6666667,29.6666667 L13.3333333,29.6666667 Z" id="Shape-color" fill="#ADB5BD"></path>
    </g>
</svg>

<svg width="80" height="80">
    <title>
        Illustrative Icons/Calendrier
    </title>
    <path d="M28.333 69.667a1.667 1.667 0 1 0 0-3.334 1.667 1.667 0 0 0 0 3.334zm35-56.667H60V9.667a1.667 1.667 0 1 0-3.333 0V13H23.333V9.667a1.667 1.667 0 0 0-3.333 0V13h-3.333A6.667 6.667 0 0 0 10 19.667V63a6.667 6.667 0 0 0 6.667 6.667H20a1.667 1.667 0 1 0 0-3.334h-3.333A3.333 3.333 0 0 1 13.333 63V33h53.334v30a3.333 3.333 0 0 1-3.334 3.333H36.667a1.667 1.667 0 1 0 0 3.334h26.666A6.667 6.667 0 0 0 70 63V19.667A6.667 6.667 0 0 0 63.333 13zm-50 16.667v-10a3.333 3.333 0 0 1 3.334-3.334H20v3.334a1.667 1.667 0 0 0 3.333 0v-3.334h33.334v3.334a1.667 1.667 0 1 0 3.333 0v-3.334h3.333a3.333 3.333 0 0 1 3.334 3.334v10H13.333z" fill="#ADB5BD" fill-rule="evenodd"/>
</svg>
